X:1
T: Mr. Fraser's Favourite
C:Nathaniel Gow
R:Strathspey
Q: 128
K:Em
M:4/4
L:1/16
|:e2|BB3 B3e g3e f3^d|e3B d3B AdAF D3d|BB3 B2ef g3e f3^d|e3B ABdF E4 E2e2|
BB3 B3e g3e f3^d|e3B d3B AdAF D2GF|E2ef g3e f3^d e3B|=d3B BAGF E4 E2B2|
EE3 G3F E2B2 G2B2|G3A B^cdB AdFA D2GF|EE3 G3F E2B2 G2B2|egfa gef^d e2E2 E3G|
EE3 G3F E2B2 G2B2|G3A B^cdB AdFA D2GF|E2G2 B2e2 B2^d2 f2a2|gefa gef^d e2E2 E2:|
